fs/cloud_archive_32_regular.svg

<svg viewBox="0 0 32 32" fill="none" xmlns="http://www.w3.org/2000/svg" height="1em" width="1em">
  <path d="M11.399 9.00824C10.4385 10.1821 10 11.7001 10 13C10 13.5523 9.55228 14 9 14C5.37634 14 4 16.5283 4 18C4 18.8548 4.21608 19.8355 4.87758 20.5915C5.51523 21.3202 6.70748 22 9 22H16V24H9C6.29252 24 4.48477 23.1798 3.37242 21.9085C2.28392 20.6645 2 19.1452 2 18C2 15.6444 3.93089 12.4699 8.05688 12.0472C8.22868 10.5914 8.79636 9.03082 9.85104 7.74176C11.1661 6.13445 13.2003 5 16 5C17.7001 5 19.6821 5.5615 21.2582 6.85104C22.6793 8.01369 23.7307 9.73841 23.9553 12.0573C25.333 12.2223 26.6687 12.7404 27.7362 13.5647C28.5548 14.1969 29.2251 15.0195 29.6185 16H27.3497C27.1222 15.6852 26.8406 15.4 26.5138 15.1477C25.5771 14.4243 24.2961 14 23 14C22.4477 14 22 13.5523 22 13C22 10.7997 21.1344 9.33388 19.9918 8.39896C18.8179 7.4385 17.2999 7 16 7C13.7997 7 12.3339 7.86555 11.399 9.00824ZM16 18C16 17.4477 16.4477 17 17 17H30C30.5523 17 31 17.4477 31 18V20C31 20.5523 30.5523 21 30 21H17C16.4477 21 16 20.5523 16 20V18ZM29.8461 22H17V27.8461C17 29.503 18.3431 30.8461 20 30.8461H26.8461C28.503 30.8461 29.8461 29.503 29.8461 27.8461V22ZM21.5 24H25.5C25.7761 24 26 24.2239 26 24.5C26 24.7761 25.7761 25 25.5 25H21.5C21.2239 25 21 24.7761 21 24.5C21 24.2239 21.2239 24 21.5 24Z" fill="#212121"/>
</svg>

<svg viewBox="0 0 32 32" fill="none" xmlns="http://www.w3.org/2000/svg" height="1em" width="1em">
  <path d="M11.399 9.008C10.439 10.182 10 11.7 10 13a1 1 0 0 1-1 1c-3.624 0-5 2.528-5 4 0 .855.216 1.835.878 2.591C5.515 21.322 6.708 22 9 22h7v2H9c-2.707 0-4.515-.82-5.628-2.091C2.284 20.665 2 19.145 2 18c0-2.356 1.93-5.53 6.057-5.953.172-1.456.74-3.016 1.794-4.305C11.166 6.134 13.201 5 16 5c1.7 0 3.682.561 5.258 1.851 1.421 1.163 2.473 2.887 2.697 5.206 1.378.165 2.714.683 3.781 1.508.819.632 1.49 1.455 1.883 2.435h-2.27a4.127 4.127 0 0 0-.835-.852C25.577 14.424 24.296 14 23 14a1 1 0 0 1-1-1c0-2.2-.866-3.666-2.008-4.601C18.818 7.439 17.3 7 16 7c-2.2 0-3.666.866-4.601 2.008ZM16 18a1 1 0 0 1 1-1h13a1 1 0 0 1 1 1v2a1 1 0 0 1-1 1H17a1 1 0 0 1-1-1v-2Zm13.846 4H17v5.846a3 3 0 0 0 3 3h6.846a3 3 0 0 0 3-3V22ZM21.5 24h4a.5.5 0 0 1 0 1h-4a.5.5 0 0 1 0-1Z" fill="#212121"/>
</svg>
